symbols/web/shopping_basket/materialsymbolsoutlined/shopping_basket_wght300grad200_40px.svg

<svg xmlns="http://www.w3.org/2000/svg" height="40" width="40"><path d="M8.167 35.458q-.709 0-1.25-.416-.542-.417-.667-1.084L1.542 17.042q-.167-.625.229-1.104.396-.48 1.021-.48h8.5l7.5-11.083q.208-.333.52-.479.313-.146.688-.146.333 0 .646.146.312.146.479.479l7.5 11.083h8.625q.583 0 .979.5t.229 1.084l-4.666 16.916q-.167.667-.709 1.084-.541.416-1.291.416Zm6.583-20h10.458L20 7.625ZM8.708 32.625h22.584H8.708ZM20 28.25q1.208 0 2.021-.812.812-.813.812-1.98 0-1.208-.812-2.02-.813-.813-2.021-.813t-2.021.813q-.812.812-.812 2.02 0 1.167.812 1.98.813.812 2.021.812ZM8.708 32.625h22.584l3.916-14.375H4.792Z"/></svg>

<svg xmlns="http://www.w3.org/2000/svg" height="40" width="40"><path d="M8.167 35.458Q7.458 35.458 6.917 35.042Q6.375 34.625 6.25 33.958L1.542 17.042Q1.375 16.417 1.771 15.938Q2.167 15.458 2.792 15.458H11.292L18.792 4.375Q19 4.042 19.312 3.896Q19.625 3.75 20 3.75Q20.333 3.75 20.646 3.896Q20.958 4.042 21.125 4.375L28.625 15.458H37.25Q37.833 15.458 38.229 15.958Q38.625 16.458 38.458 17.042L33.792 33.958Q33.625 34.625 33.083 35.042Q32.542 35.458 31.792 35.458ZM14.75 15.458H25.208L20 7.625ZM8.708 32.625H31.292H8.708ZM20 28.25Q21.208 28.25 22.021 27.438Q22.833 26.625 22.833 25.458Q22.833 24.25 22.021 23.438Q21.208 22.625 20 22.625Q18.792 22.625 17.979 23.438Q17.167 24.25 17.167 25.458Q17.167 26.625 17.979 27.438Q18.792 28.25 20 28.25ZM8.708 32.625H31.292L35.208 18.25H4.792Z"/></svg>
